!!!COM: Bach, Johann Sebastian
!!!OTA: Das wohltemperirte Clavier
!!!OPR: Das wohltemperierte Klavier
!!!OTL: Fuga 2, Vol. 1
!!!XEN: The Well-Tempered Clavier, Volume 1, Fugue 2.
!!!ONB: C minor, 3-part
!!!SCT: BWV 847b
!!!YEC: Copyright 1994, David Huron
!!!YEM: Rights to all derivative electronic formats reserved.
**kern	**kern	**kern
*staff2	*staff1	*staff1
*clefF4	*clefG2	*clefG2
*k[b-e-a-]	*k[b-e-a-]	*k[b-e-a-]
*M4/4	*M4/4	*M4/4
*c:	*c:	*c:
*MM72	*MM72	*MM72
=1	=1	=1
1r	8r	1r
.	16cc	.
.	16bn	.
.	8cc	.
.	8g	.
.	8a-	.
.	16cc	.
.	16b	.
.	8cc	.
.	8dd	.
=2	=2	=2
1r	8g	1r
.	16cc	.
.	16bn	.
.	8cc	.
.	8dd	.
.	16f	.
.	16g	.
.	4a-	.
.	16g	.
.	16f	.
=3	=3	=3
1r	16e-	8r
.	16cc	.
.	16bn	16gg
.	16an	16ff#
.	16g	8gg
.	16fn	.
.	16e-	8cc
.	16d	.
.	8c	8ee-
.	8ee-	16gg
.	.	16ff#
.	8dd	8gg
.	8cc	8aan
=4	=4	=4
1r	8b-	8dd
.	8an	16gg
.	.	16ff#
.	8b-	8gg
.	8cc	8aan
.	8f#	16cc
.	.	16dd
.	8g	4ee-
.	8a	.
.	8f#	16dd
.	.	16cc
=5	=5	=5
1r	4g	8b-
.	.	16ee-
.	.	16dd
.	16r	8ee-
.	16c	.
.	16d	8g
.	16e-	.
.	16f	8a-
.	16g	.
.	[8a-	16ff
.	.	16ee-
.	16a-]	8ff
.	16d	.
.	16e-	8an
.	16f	.
=6	=6	=6
1r	16g	8b-
.	16an	.
.	[8b-	16gg
.	.	16ff
.	16b-]	8gg
.	16e-	.
.	16f	8bn
.	16g	.
.	16a-	8cc
.	16g	.
.	16f	16dd
.	16e-	16ee-
.	8d	[4ff
.	16cc	.
.	16bn	.
=7	=7	=7
8r	4cc	8ff]
16c	.	16ee-
16Bn	.	16dd
8c	4r	16cc
.	.	16b-
8G	.	16a-
.	.	16g
8A-	8r	8f
16c	8ff	8aa-
16B	.	.
8c	8ee-	8gg
8d	8dd	8ff
=8	=8	=8
8G	8r	8ee-
16c	8a-	8dd
16Bn	.	.
8c	8g	8ee-
8d	8f	8ff
16F	8g	8bn
16G	.	.
4A-	16f	8cc
.	16e-	.
.	8f	8dd
16G	8d	8b
16F	.	.
=9	=9	=9
16E-	4g	8cc
16c	.	.
16Bn	.	16gg
16An	.	16ff#
16G	8r	8gg
16F	.	.
16E-	8bn	8dd
16D	.	.
16C	8cc	4ee-
16D	.	.
16E-	16cc	.
16D	16b	.
16C	8cc	8r
16BB-	.	.
16AA-	8g	8een
16GG	.	.
=10	=10	=10
16FF	4a-	8ff
16B-	.	.
16A-	.	16ff
16G	.	16een
16F	8r	8ff
16E-	.	.
16D	8an	8cc
16C	.	.
16BB-	8b-	4dd
16C	.	.
16D	16b-	.
16C	16a	.
16BB-	8b-	8r
16AA-	.	.
16GG	8f	8dd
16FF	.	.
=11	=11	=11
16EE-	4g	8ee-
16A-	.	.
16G	.	16ee-
16F	.	16dd
16E-	8r	8ee-
16D-	.	.
16C	8g	8b-
16BB-	.	.
8AA-	8a-	8cc
8c	8a-	16ee-
.	.	16dd
8B-	8g	8ee-
8A-	8f	8ff
=12	=12	=12
8G	8r	8b-
8F	8A-	16ee-
.	.	16dd
8G	8B-	8ee-
8A-	8c	8ff
8D	8r	16a-
.	.	16b-
8E-	16A-	4cc
.	16G	.
8F	8A-	.
8D	8F	16b-
.	.	16a-
=13	=13	=13
8E-	8B-	16g
.	.	16e-
8A-	8c	16f
.	.	16g
8G	8B-	16a-
.	.	16b-
8F	8A-	16cc
.	.	16dd
8G	8B-	16ee-
.	.	16dd
8E-	8G	16cc
.	.	16dd
8D	8F	16ee-
.	.	16ff
8C	8E-	16gg
.	.	16aan
=14	=14	=14
8D	8F	16bb-
.	.	16f
8B-	8d-	16g
.	.	16a-
8A-	8c	16b-
.	.	16cc
8G	8B-	16dd
.	.	16een
8A-	8c	16ff
.	.	16ee-
8F	8A-	16dd
.	.	16ee-
8E-	8G	16ff
.	.	16gg
8Dn	8F	16aan
.	.	16bbn
=15	=15	=15
8E-	8G	8ccc
8r	16g	16bbn
.	16f#	16aan
4r	8g	16gg
.	.	16ffn
.	8c	16ee-
.	.	16dd
8r	8e-	8cc
8C	16g	8ee-
.	16f#	.
8BB-	8g	8dd
8AAn	8an	8cc
=16	=16	=16
8r	8d	8b-
8E-	16g	8an
.	16f#	.
8D	8g	8b-
8C	8an	8cc
8D	16c	8f#
.	16d	.
16C	4e-	8g
16BB-	.	.
8C	.	8a
8D	16d	8f#
.	16c	.
=17	=17	=17
8GG	8B-	8g
16B-	8r	16dd
16An	.	16cc
8B-	16r	8dd
.	16d	.
8D	16en	8r
.	16f#	.
8E-	16g	8r
.	16an	.
16c	[8b-	16een
16B-	.	16dd
8c	16b-]	8ee
.	16e	.
8En	16fn	8r
.	16g	.
=18	=18	=18
8F	16an	8r
.	16b-	.
16d	[8cc	16ff#
16c	.	16een
8d	16cc]	8ff#
.	16f#	.
8F#	16g	8r
.	16a	.
4G	8b-	8r
.	16e-	16g
.	16d	16fn
16r	8e-	8g
16GG	.	.
16AAn	8G	8r
16BBn	.	.
=19	=19	=19
16C	8A-	8r
16D	.	.
[8E-	16f	16an
.	16e-	16g
16E-]	8f	8a
16AAn	.	.
16BB-	8An	8r
16C	.	.
16D	8B-	8r
16E-	.	.
[8F	16g	16bn
.	16f	16a
16F]	8g	8b
16BBn	.	.
16C	8Bn	8r
16D	.	.
=20	=20	=20
8E-	16c	8r
.	16f	.
8r	16e-	16cc
.	16d	16bn
8r	16c	8cc
.	16B-	.
8En	16A-	8g
.	16G	.
8F	8F	8a-
8FF	8a-	16cc
.	.	16b
8EE-	8g	8cc
8DD	8f	8dd
=21	=21	=21
8r	8e-	8g
8AA-	8d	16cc
.	.	16bn
8GG	8e-	8cc
8FF	8f	8dd
8GG	8Bn	16f
.	.	16g
16FF	8c	4a-
16EE-	.	.
8FF	8d	.
8GG	8B	16g
.	.	16f
=22	=22	=22
16C	4c	8e-
16D	.	.
16E-	.	16cc
16D	.	16bn
16C	8r	8cc
16BB-	.	.
16AA-	8en	8g
16GG	.	.
16FF	8f	4a-
16B-	.	.
16A-	16f	.
16G	16e	.
16F	8f	8r
16E-	.	.
16D	8c	8an
16C	.	.
=23	=23	=23
16BB-	4d	8b-
16C	.	.
16D	.	16b-
16C	.	16an
16BB-	8r	8b-
16AA-	.	.
16GG	8d	8f
16FF	.	.
16EE-	8e-	4g
16A-	.	.
16G	16e-	.
16F	16d	.
16E-	8e-	8r
16D	.	.
16C	8B-	[8g
16BB-	.	.
=24	=24	=24
16AA-	[2c	8g]
16BB-	.	.
16C	.	16a-
16BB-	.	16b-
16AA-	.	16cc
16GG	.	16bn
16FF	.	16cc
16EE-	.	16a-
16DD	8c]	[2f
16G	.	.
16F	16d	.
16E-	16e-	.
16D	16f	.
16C	16e-	.
16BBn	16f	.
16AAn	16d	.
=25	=25	=25
4GG	8Bn	8f]
.	8r	16dd
.	.	16cc
4r	8r	8dd
.	8B	8f
16r	8c	8e-
16GG	.	.
16AAn	8r	16ee-
16BBn	.	16dd
16C	8r	8ee-
16D	.	.
16E-	8e-	8g
16F	.	.
=26	=26	=26
16G	8d	8f
16F	.	.
16A-	8r	16ff
16G	.	16ee-
16F	8r	8ff
16E-	.	.
16D	[8f	8a-
16C	.	.
8BBn	8f]	16g
.	.	16ff
16C	8r	16ee-
16BB	.	16dd
8C	8r	16cc
.	.	16bn
8GG	8f	16an
.	.	16g
=27	=27	=27
8AA-	8e-	8cc
16C	8a-	8ff
16BBn	.	.
8C	8g	8ee-
8D	8f	8dd
8GG	8e-	8r
16C	8d	8a-
16BB	.	.
8C	8e-	8g
8D	8f	8f
=28	=28	=28
16FF	8Bn	8g
16GG	.	.
4AA-	8c	16f
.	.	16e-
.	8d	8f
16GG	8B	8d
16FF	.	.
4EE-	8B	8a-
.	8c	8g
8r	8r	8r
8E-	8c	8an
=29	=29	=29
8D	16f	8bn
.	16d	.
8C	16e-	8cc
.	[16c	.
8G	8c]	16f
.	.	16e-
8GG	8Bn	16d
.	.	16c
[2CC [2C	4c	8c
.	.	16cc
.	.	16bnx
.	8r	8cc
.	8en	8g
=30	=30	=30
1CC_ 1C_	4f	8a-
.	.	16cc
.	.	16bn
.	8r	8cc
.	8f 8a-	8bn 8dd
.	8f	8g
.	16e-	16cc
.	16d	16b
.	8e-	8cc
.	8f 8a-	8dd
=31	=31	=31
1CC] 1C]	8Bn 8d	16f
.	.	16g
.	8r	4a-
.	8B 8d	.
.	8r	16g
.	.	16f
.	2G 2c	2en
==	==	==
*-	*-	*-
!!!CDT: 1685/3/-1750/7/28
!!!OCY: Deutschland
!!!PPP: Coethen; Cothen; Co2then
!!!ODT: <1722//
!!!PDT: 1722
!!!AFR: fuga; fugue
!!!AST: polyphony
!!!AMT: simple quadruple
!!!SCA: Bach-Werke-Verzeichnis
!!!YOR: Bach Gesellschaft
!!!SMS: British Library, various
!!!AIN: cemba; clavi
!!!EEV: 1.0
!!!RDT: 1986 November 14
!!!YER: 1994 August 10
!!!EFL: 2/48
!!!VTS: 1035528445
